images/icon/menu_top10.svg

<svg width="42" height="20" viewBox="0 0 42 20" fill="none" xmlns="http://www.w3.org/2000/svg">
<path d="M2.79555 10.1H0.475547V9H6.41555V10.1H4.09555V16H2.79555V10.1ZM10.5635 16.1C9.85018 16.1 9.20685 15.9467 8.63352 15.64C8.06018 15.3267 7.61018 14.8967 7.28352 14.35C6.95685 13.7967 6.79352 13.18 6.79352 12.5C6.79352 11.82 6.95685 11.2067 7.28352 10.66C7.61018 10.1067 8.06018 9.67667 8.63352 9.37C9.20685 9.05667 9.85018 8.9 10.5635 8.9C11.2768 8.9 11.9202 9.05667 12.4935 9.37C13.0668 9.67667 13.5168 10.1033 13.8435 10.65C14.1702 11.1967 14.3335 11.8133 14.3335 12.5C14.3335 13.1867 14.1702 13.8033 13.8435 14.35C13.5168 14.8967 13.0668 15.3267 12.4935 15.64C11.9202 15.9467 11.2768 16.1 10.5635 16.1ZM10.5635 14.96C11.0302 14.96 11.4502 14.8567 11.8235 14.65C12.1968 14.4367 12.4902 14.1433 12.7035 13.77C12.9168 13.39 13.0235 12.9667 13.0235 12.5C13.0235 12.0333 12.9168 11.6133 12.7035 11.24C12.4902 10.86 12.1968 10.5667 11.8235 10.36C11.4502 10.1467 11.0302 10.04 10.5635 10.04C10.0968 10.04 9.67685 10.1467 9.30352 10.36C8.93018 10.5667 8.63685 10.86 8.42352 11.24C8.21018 11.6133 8.10352 12.0333 8.10352 12.5C8.10352 12.9667 8.21018 13.39 8.42352 13.77C8.63685 14.1433 8.93018 14.4367 9.30352 14.65C9.67685 14.8567 10.0968 14.96 10.5635 14.96ZM18.5915 9C19.1982 9 19.7248 9.1 20.1715 9.3C20.6248 9.5 20.9715 9.78667 21.2115 10.16C21.4515 10.5333 21.5715 10.9767 21.5715 11.49C21.5715 11.9967 21.4515 12.44 21.2115 12.82C20.9715 13.1933 20.6248 13.48 20.1715 13.68C19.7248 13.88 19.1982 13.98 18.5915 13.98H17.0115V16H15.7115V9H18.5915ZM18.5315 12.88C19.0982 12.88 19.5282 12.76 19.8215 12.52C20.1148 12.28 20.2615 11.9367 20.2615 11.49C20.2615 11.0433 20.1148 10.7 19.8215 10.46C19.5282 10.22 19.0982 10.1 18.5315 10.1H17.0115V12.88H18.5315ZM24.8873 9V16H23.5873V10.09H22.1073V9H24.8873ZM29.1959 16.1C28.6359 16.1 28.1359 15.96 27.6959 15.68C27.2559 15.3933 26.9093 14.98 26.6559 14.44C26.4026 13.8933 26.2759 13.2467 26.2759 12.5C26.2759 11.7533 26.4026 11.11 26.6559 10.57C26.9093 10.0233 27.2559 9.61 27.6959 9.33C28.1359 9.04333 28.6359 8.9 29.1959 8.9C29.7559 8.9 30.2559 9.04333 30.6959 9.33C31.1426 9.61 31.4926 10.0233 31.7459 10.57C31.9993 11.11 32.1259 11.7533 32.1259 12.5C32.1259 13.2467 31.9993 13.8933 31.7459 14.44C31.4926 14.98 31.1426 15.3933 30.6959 15.68C30.2559 15.96 29.7559 16.1 29.1959 16.1ZM29.1959 14.97C29.6959 14.97 30.0893 14.7633 30.3759 14.35C30.6693 13.9367 30.8159 13.32 30.8159 12.5C30.8159 11.68 30.6693 11.0633 30.3759 10.65C30.0893 10.2367 29.6959 10.03 29.1959 10.03C28.7026 10.03 28.3093 10.2367 28.0159 10.65C27.7293 11.0633 27.5859 11.68 27.5859 12.5C27.5859 13.32 27.7293 13.9367 28.0159 14.35C28.3093 14.7633 28.7026 14.97 29.1959 14.97Z" fill="#FFC02E"/>
<g clip-path="url(#clip0)">
<path d="M36.629 10.0967L30.4111 6.97688C30.3159 6.9291 30.2521 6.83754 30.2361 6.73174C30.0201 5.11917 31.1182 2.77376 31.2855 2.42619C31.2922 2.41286 31.2989 2.39953 31.3055 2.3862C31.3849 2.22813 31.5774 2.16265 31.7374 2.24292C31.8955 2.32223 31.959 2.51384 31.8816 2.67287C31.8807 2.67477 31.8721 2.69191 31.8568 2.72238C31.4716 3.5518 31.8142 4.54613 32.6389 4.95987C33.4787 5.38126 34.5026 5.04156 34.924 4.2017C35.0033 4.04364 35.1977 3.97911 35.3558 4.05842L36.0147 4.38903C36.1728 4.46834 36.2373 4.66282 36.158 4.82089C35.7366 5.66074 36.0763 6.6846 36.9162 7.10599C37.7408 7.51973 38.7437 7.1981 39.1784 6.39353C39.1927 6.36496 39.2013 6.34782 39.2013 6.34782C39.2806 6.18975 39.4741 6.12713 39.6322 6.20644C39.7903 6.28575 39.8548 6.48023 39.7755 6.6383C39.7688 6.65163 39.7621 6.66496 39.7554 6.67829C39.5777 7.01822 38.3529 9.30247 36.9311 10.0933C36.8367 10.1437 36.7242 10.1445 36.629 10.0967Z" fill="#FFEA2B"/>
<path d="M39.6332 6.20444C39.6332 6.20444 39.6313 6.20349 39.6332 6.20444C39.4751 6.12513 39.2816 6.18775 39.2023 6.34582C39.2013 6.34773 39.1937 6.36296 39.1784 6.39343C38.7428 7.19991 37.7408 7.51964 36.9162 7.1059C36.0764 6.68451 35.7367 5.66064 36.1581 4.82079C36.2374 4.66273 36.1728 4.46825 36.0148 4.38894L35.6853 4.22363L33.521 8.53716L36.6291 10.0966C36.7243 10.1444 36.8358 10.1407 36.9302 10.0903C38.352 9.29951 39.5758 7.01717 39.7545 6.67533C39.7612 6.662 39.7679 6.64867 39.7746 6.63534C39.8539 6.47727 39.7912 6.28375 39.6332 6.20444Z" fill="#FFC02E"/>
<path d="M36.0835 3.43027C35.6741 3.22483 35.1736 3.39089 34.9682 3.80034C34.7627 4.2098 34.9288 4.71029 35.3382 4.91573C35.7477 5.12116 36.2482 4.95511 36.4536 4.54566C36.6591 4.1362 36.4911 3.63476 36.0835 3.43027Z" fill="#FFC02E"/>
<path d="M36.0837 3.42969L35.3394 4.91324C35.7488 5.11867 36.2493 4.95262 36.4548 4.54317C36.6602 4.13371 36.4913 3.63417 36.0837 3.42969Z" fill="#FFA73B"/>
<path d="M31.7765 2.16514C31.367 1.9597 30.8665 2.12576 30.6611 2.53521C30.4557 2.94466 30.6217 3.44515 31.0312 3.65059C31.4406 3.85603 31.9411 3.68997 32.1465 3.28052C32.352 2.87107 32.1859 2.37058 31.7765 2.16514Z" fill="#FFC02E"/>
<path d="M39.6703 6.12559C39.2609 5.92015 38.7604 6.0862 38.555 6.49566C38.3495 6.90511 38.5156 7.4056 38.925 7.61104C39.3345 7.81648 39.835 7.65042 40.0404 7.24097C40.2458 6.83152 40.0798 6.33102 39.6703 6.12559Z" fill="#FFA73B"/>
<path d="M36.1559 11.04L29.9379 7.92019C29.7798 7.84088 29.7153 7.64641 29.7946 7.48834L30.2246 6.63135L37.0177 10.0397L36.5877 10.8967C36.5084 11.0548 36.3139 11.1193 36.1559 11.04Z" fill="#FFC02E"/>
<path d="M33.0479 9.4805L36.1559 11.0399C36.314 11.1192 36.5084 11.0547 36.5877 10.8966L37.0177 10.0396L33.6221 8.33594L33.0479 9.4805Z" fill="#FFA73B"/>
</g>
<defs>
<clipPath id="clip0">
<rect width="11" height="11" fill="white" transform="translate(31.933) rotate(26.6448)"/>
</clipPath>
</defs>
</svg>

<svg width="42" height="20" fill="none" xmlns="http://www.w3.org/2000/svg"><path d="M2.796 10.1H.476V9h5.94v1.1h-2.32V16h-1.3v-5.9zm7.767 6c-.713 0-1.356-.153-1.93-.46a3.49 3.49 0 01-1.35-1.29 3.57 3.57 0 01-.49-1.85c0-.68.164-1.293.49-1.84a3.398 3.398 0 011.35-1.29 3.964 3.964 0 011.93-.47c.714 0 1.357.157 1.93.47a3.42 3.42 0 011.35 1.28c.327.547.49 1.163.49 1.85s-.163 1.303-.49 1.85a3.49 3.49 0 01-1.35 1.29c-.573.307-1.216.46-1.93.46zm0-1.14c.467 0 .887-.103 1.26-.31.374-.213.667-.507.88-.88.214-.38.32-.803.32-1.27 0-.467-.106-.887-.32-1.26a2.235 2.235 0 00-.88-.88 2.494 2.494 0 00-1.26-.32 2.5 2.5 0 00-1.26.32c-.373.207-.666.5-.88.88-.213.373-.32.793-.32 1.26 0 .467.107.89.32 1.27.214.373.507.667.88.88.374.207.794.31 1.26.31zM18.591 9c.607 0 1.134.1 1.58.3.454.2.8.487 1.04.86s.36.817.36 1.33c0 .507-.12.95-.36 1.33-.24.373-.586.66-1.04.86-.446.2-.973.3-1.58.3h-1.58V16h-1.3V9h2.88zm-.06 3.88c.567 0 .997-.12 1.29-.36.294-.24.44-.583.44-1.03 0-.447-.146-.79-.44-1.03-.293-.24-.723-.36-1.29-.36h-1.52v2.78h1.52zM24.888 9v7h-1.3v-5.91h-1.48V9h2.78zm4.309 7.1c-.56 0-1.06-.14-1.5-.42-.44-.287-.787-.7-1.04-1.24-.253-.547-.38-1.193-.38-1.94 0-.747.127-1.39.38-1.93.253-.547.6-.96 1.04-1.24.44-.287.94-.43 1.5-.43s1.06.143 1.5.43c.447.28.797.693 1.05 1.24.253.54.38 1.183.38 1.93 0 .747-.127 1.393-.38 1.94-.253.54-.603.953-1.05 1.24-.44.28-.94.42-1.5.42zm0-1.13c.5 0 .893-.207 1.18-.62.293-.413.44-1.03.44-1.85 0-.82-.147-1.437-.44-1.85a1.36 1.36 0 00-1.18-.62c-.493 0-.887.207-1.18.62-.287.413-.43 1.03-.43 1.85 0 .82.143 1.437.43 1.85.293.413.687.62 1.18.62z" fill="#FFC02E"/><g clip-path="url(#clip0)"><path d="M36.629 10.097l-6.218-3.12a.326.326 0 01-.175-.245c-.216-1.613.882-3.958 1.05-4.306l.02-.04a.322.322 0 01.576.287l-.025.05a1.704 1.704 0 003.067 1.479.323.323 0 01.432-.144l.659.331c.158.08.222.274.143.432a1.703 1.703 0 003.02 1.573l.023-.046a.321.321 0 01.575.29l-.02.04c-.178.34-1.403 2.624-2.825 3.415a.328.328 0 01-.302.004z" fill="#FFEA2B"/><path d="M39.633 6.204s-.002 0 0 0a.321.321 0 00-.43.142l-.025.047a1.703 1.703 0 01-3.02-1.573.323.323 0 00-.143-.431l-.33-.165-2.164 4.313 3.108 1.56a.326.326 0 00.301-.007c1.422-.79 2.646-3.073 2.825-3.415l.02-.04a.321.321 0 00-.142-.43z" fill="#FFC02E"/><path d="M36.084 3.43a.832.832 0 00-.746 1.486.832.832 0 00.745-1.486z" fill="#FFC02E"/><path d="M36.084 3.43l-.745 1.483c.41.206.91.04 1.116-.37a.832.832 0 00-.371-1.113z" fill="#FFA73B"/><path d="M31.776 2.165a.832.832 0 00-.745 1.486.832.832 0 00.745-1.486z" fill="#FFC02E"/><path d="M39.67 6.126a.832.832 0 00-.745 1.485.832.832 0 00.745-1.485z" fill="#FFA73B"/><path d="M36.156 11.04l-6.218-3.12a.323.323 0 01-.143-.432l.43-.857 6.793 3.409-.43.857a.323.323 0 01-.432.143z" fill="#FFC02E"/><path d="M33.048 9.48l3.108 1.56c.158.08.352.015.432-.143l.43-.857-3.396-1.704-.574 1.144z" fill="#FFA73B"/></g><defs><clipPath id="clip0"><path fill="#fff" transform="rotate(26.645 15.966 67.425)" d="M0 0h11v11H0z"/></clipPath></defs></svg>
